X: 43
M: 6/8
L: 1/8
K: A
V: 1
e2a agf | e3 fdd | ecc BAB | c3 A2c |\
e2a agf | g3 bge | cag fef | e3 |
|: c2e |\
efe edc | d3 B2d | ded dcB | c3 CDE |\
EFE CDE | EFE EFG | Adc BAG | A3 :|
V: 2 clef=bass middle=d
a3 d3 | c3 d3 | A3 e3 |
a3 A3 | c3 f3 | e3 g3 | a3 b3 |
e3 :||: a3 | c'3 f3 | b3 b3 | e3 g3 |
a3 a3 | g3 a3 | g3 a2g | f2c d2e | A3 :|


